.local/share/icons/Gruvbox-Plus-Dark/mimetypes/scalable/application-vnd.corel-draw.svg

<svg width="256" height="256" viewBox="0 0 256 256" fill="none" xmlns="http://www.w3.org/2000/svg">
<g opacity="0.4" filter="url(#filter0_f)">
<path d="M55.0839 15.5636H155.608L216.009 75.7129L216.011 224.609C216.011 233.52 208.749 240.737 199.838 240.737H55.0838C46.1734 240.737 39 233.564 39 224.654V31.6474C39 22.737 46.1734 15.5636 55.0838 15.5636H55.0839Z" fill="#282828"/>
</g>
<path d="M55.0839 15H155.608L216.009 75.1493L216.011 224.045C216.011 232.956 208.749 240.174 199.838 240.174H55.0838C46.1734 240.174 39 233 39 224.09V31.0838C39 22.1734 46.1734 15 55.0838 15H55.0839Z" fill="#ebdbb2"/>
<path d="M92.6794 102.153C92.7754 121.266 108.687 151.082 123.387 171.653H124.839C113.655 150.837 104.115 125.172 104.031 104.944C103.947 86.5898 111.303 74.9452 121.215 68.2964C119.019 68.5046 116.811 68.8229 114.627 69.2515C102.387 74.2105 92.5834 84.447 92.6794 102.153ZM125.043 68.0393C119.319 75.9125 114.891 87.0673 114.927 103.255C114.975 124.389 119.823 149.502 126.075 171.653H129.915C136.167 149.49 141.003 124.377 141.063 103.255C141.099 87.0673 136.683 75.9125 130.947 68.0393C128.979 67.9535 127.011 67.9535 125.043 68.0393ZM163.31 102.153C163.214 121.266 147.315 151.082 132.603 171.653H131.151C142.335 150.837 151.875 125.172 151.959 104.944C152.043 86.5898 144.687 74.9452 134.775 68.2964C136.971 68.5046 139.179 68.8229 141.363 69.2515C153.603 74.2105 163.406 84.447 163.31 102.153ZM133.611 171.653C150.075 153.972 168.746 124.438 168.866 101.663C168.938 87.7041 162.279 78.4472 152.955 72.7902C164.378 77.7982 173.078 87.0306 172.994 102.042C172.862 125.16 151.131 155.71 133.887 171.653H133.611ZM122.379 171.653C105.927 153.972 87.2435 124.438 87.1235 101.663C87.0515 87.7041 93.7114 78.4472 103.035 72.7902C91.6115 77.7982 82.9116 87.0306 82.9956 102.042C83.1276 125.172 104.847 155.723 122.091 171.653H122.379Z" fill="url(#paint0_linear)"/>
<path d="M124.203 176.685H131.775C133.155 176.685 134.271 177.824 134.271 179.232V185.428C134.271 186.824 133.155 187.975 131.775 187.975H124.203C122.835 187.975 121.707 186.836 121.707 185.428V179.232C121.707 177.836 122.835 176.685 124.203 176.685Z" fill="url(#paint1_linear)"/>
<path fill-rule="evenodd" clip-rule="evenodd" d="M155.608 20.3191H55.0839C49.1112 20.3191 44.3191 25.1111 44.3191 31.0838V224.09C44.3191 230.063 49.1111 234.855 55.0838 234.855H199.838C205.83 234.855 210.692 229.999 210.692 224.046V75.1493L155.608 20.3191ZM155.608 15H55.0839C46.1735 15 39 22.1734 39 31.0838V224.09C39 233 46.1734 240.174 55.0838 240.174H199.838C208.749 240.174 216.011 232.956 216.011 224.045L216.009 75.1493L155.608 15Z" fill="url(#paint2_linear)"/>
<path opacity="0.25" d="M155.608 17V61.2306C155.608 70.141 162.867 77.1605 171.777 77.1605L216.009 77.1493V75.1493L155.608 17Z" fill="#282828"/>
<path d="M155.608 15V59.2306C155.608 68.141 162.867 75.1605 171.777 75.1605L216.009 75.1493L155.608 15Z" fill="url(#paint3_linear)"/>
<defs>
<filter id="filter0_f" x="23.8778" y="0.441412" width="207.255" height="255.418" filterUnits="userSpaceOnUse" color-interpolation-filters="sRGB">
<feFlood flood-opacity="0" result="BackgroundImageFix"/>
<feBlend mode="normal" in="SourceGraphic" in2="BackgroundImageFix" result="shape"/>
<feGaussianBlur stdDeviation="7.5611" result="effect1_foregroundBlur"/>
</filter>
<linearGradient id="paint0_linear" x1="82.995" y1="67.975" x2="82.995" y2="171.653" gradientUnits="userSpaceOnUse">
<stop offset="1e-07" stop-color="#b16286"/>
<stop offset="1" stop-color="#8f3f71"/>
</linearGradient>
<linearGradient id="paint1_linear" x1="121.707" y1="176.685" x2="121.707" y2="187.975" gradientUnits="userSpaceOnUse">
<stop offset="1e-07" stop-color="#b8bb26"/>
<stop offset="1" stop-color="#b8bb26"/>
</linearGradient>
<linearGradient id="paint2_linear" x1="39" y1="15" x2="39" y2="240.174" gradientUnits="userSpaceOnUse">
<stop offset="1e-07" stop-color="#b16286"/>
<stop offset="1" stop-color="#8f3f71"/>
</linearGradient>
<linearGradient id="paint3_linear" x1="155.608" y1="15" x2="155.608" y2="75.1605" gradientUnits="userSpaceOnUse">
<stop offset="1e-07" stop-color="#b16286"/>
<stop offset="1" stop-color="#8f3f71"/>
</linearGradient>
</defs>
</svg>

<svg width="256" height="256" fill="none" version="1.1" viewBox="0 0 256 256" xmlns="http://www.w3.org/2000/svg">
  <path d="m55.08 15h100.5l60.4 60.15 2e-3 148.9c0 8.911-7.262 16.13-16.17 16.13h-144.8c-8.91 0-16.08-7.174-16.08-16.08v-193c0-8.91 7.173-16.08 16.08-16.08h1e-4z" fill="#ebdbb2"/>
  <path d="m92.68 102.2c0.096 19.11 16.01 48.93 30.71 69.5h1.452c-11.18-20.82-20.72-46.48-20.81-66.71-0.084-18.35 7.272-30 17.18-36.65-2.196 0.2082-4.404 0.5265-6.588 0.9551-12.24 4.959-22.04 15.2-21.95 32.9zm32.36-34.11c-5.724 7.873-10.15 19.03-10.12 35.22 0.048 21.13 4.896 46.25 11.15 68.4h3.84c6.252-22.16 11.09-47.28 11.15-68.4 0.036-16.19-4.38-27.34-10.12-35.22-1.968-0.0858-3.936-0.0858-5.904 0zm38.27 34.11c-0.096 19.11-16 48.93-30.71 69.5h-1.452c11.18-20.82 20.72-46.48 20.81-66.71 0.084-18.35-7.272-30-17.18-36.65 2.196 0.2082 4.404 0.5265 6.588 0.9551 12.24 4.959 22.04 15.2 21.95 32.9zm-29.7 69.5c16.46-17.68 35.14-47.22 35.26-69.99 0.072-13.96-6.587-23.22-15.91-28.87 11.42 5.008 20.12 14.24 20.04 29.25-0.132 23.12-21.86 53.67-39.11 69.61h-0.276zm-11.23 0c-16.45-17.68-35.14-47.22-35.26-69.99-0.072-13.96 6.588-23.22 15.91-28.87-11.42 5.008-20.12 14.24-20.04 29.25 0.132 23.13 21.85 53.68 39.1 69.61h0.288z" fill="url(#paint0_linear)"/>
  <path d="m124.2 176.7h7.572c1.38 0 2.496 1.139 2.496 2.547v6.196c0 1.396-1.116 2.547-2.496 2.547h-7.572c-1.368 0-2.496-1.139-2.496-2.547v-6.196c0-1.396 1.128-2.547 2.496-2.547z" fill="url(#paint1_linear)"/>
  <path d="m155.6 20.32h-100.5c-5.973 0-10.76 4.792-10.76 10.76v193c0 5.973 4.792 10.76 10.76 10.76h144.8c5.992 0 10.85-4.856 10.85-10.81v-148.9l-55.08-54.83zm0-5.319h-100.5c-8.91 0-16.08 7.173-16.08 16.08v193c0 8.91 7.173 16.08 16.08 16.08h144.8c8.911 0 16.17-7.218 16.17-16.13l-2e-3 -148.9-60.4-60.15z" clip-rule="evenodd" fill="url(#paint2_linear)" fill-rule="evenodd"/>
  <path d="m155.6 17v44.23c0 8.91 7.259 15.93 16.17 15.93l44.23-0.0112v-2l-60.4-58.15z" fill="#282828" opacity=".25"/>
  <path d="m155.6 15v44.23c0 8.91 7.259 15.93 16.17 15.93l44.23-0.0112-60.4-60.15z" fill="url(#paint3_linear)"/>
  <defs>
    <linearGradient id="paint0_linear" x1="83" x2="83" y1="67.98" y2="171.7" gradientUnits="userSpaceOnUse">
      <stop stop-color="#b16286" offset="1e-7"/>
      <stop stop-color="#8f3f71" offset="1"/>
    </linearGradient>
    <linearGradient id="paint1_linear" x1="121.7" x2="121.7" y1="176.7" y2="188" gradientUnits="userSpaceOnUse">
      <stop stop-color="#b8bb26" offset="1e-7"/>
      <stop stop-color="#b8bb26" offset="1"/>
    </linearGradient>
    <linearGradient id="paint2_linear" x1="39" x2="39" y1="15" y2="240.2" gradientUnits="userSpaceOnUse">
      <stop stop-color="#b16286" offset="1e-7"/>
      <stop stop-color="#8f3f71" offset="1"/>
    </linearGradient>
    <linearGradient id="paint3_linear" x1="155.6" x2="155.6" y1="15" y2="75.16" gradientUnits="userSpaceOnUse">
      <stop stop-color="#b16286" offset="1e-7"/>
      <stop stop-color="#8f3f71" offset="1"/>
    </linearGradient>
  </defs>
</svg>
